X: 64
M:2/4
L:1/16
K:Emix
(uec) |\
.B2(GB) EBGB | .B2(GB) cFFc | .B2(GB) EBGB | Bcef gfec |
.B2(GB) EBGB | .B2(GB) cFFc | .B2(GB) EBGB | Bcef gee2 H|]


